X:103
T:Lemonday - Gilbert
C:Taken down from S. Gilbert, July 1891 by F.W.B.
%%VWML:SBG-1-1-545-0
F:http://www.vwml.org/record/SBG/1/1/545
Z:Original Sibleius Transcription by Martin and Shan Graebe
L:1/8
M:4/4
I:linebreak $
K:F
c2 | c2 d c c2 GA | _B2 cB AF C3 e | e2 [cd]c f2 ed | cABc d3 c |$ ee [cd]c f2 ed | cc BA GE FG | 
AA (3FGA _B A2 F | G2 c>=B c4 |] 



